wp-content/themes/mojo-v2/dist/images/homeIntroStars.svg

<svg class="stars" width="1277" height="701" viewBox="0 0 1277 701" fill="none" xmlns="http://www.w3.org/2000/svg">
    <style>
    @keyframes sparkle {
        60% {
            opacity: 0.4;
            transform: scale(1);
        }
        80% {
            opacity: 0.8;
            transform: scale(1.2);
        }
        100% {
            opacity: 0.4;
            transform: scale(1);
        }
    }
    .st {
        opacity: 0.4;
        animation: sparkle 3000ms infinite alternate;
        transform-origin: center center;
        transform-origin: 50%;
        transform-box: fill-box;
        will-change: transform, opacity;
        }
        .st:nth-child(1) {
        animation-delay: 353ms;
        }
        .st:nth-child(2) {
        animation-delay: 1364ms;
        }
        .st:nth-child(3) {
        animation-delay: 1449ms;
        }
        .st:nth-child(4) {
        animation-delay: 1803ms;
        }
        .st:nth-child(5) {
        animation-delay: 929ms;
        }
        .st:nth-child(6) {
        animation-delay: 1274ms;
        }
        .st:nth-child(7) {
        animation-delay: 744ms;
        }
        .st:nth-child(8) {
        animation-delay: 443ms;
        }
        .st:nth-child(9) {
        animation-delay: 31ms;
        }
        .st:nth-child(10) {
        animation-delay: 1161ms;
        }
        .st:nth-child(11) {
        animation-delay: 354ms;
        }
        .st:nth-child(12) {
        animation-delay: 989ms;
        }
        .st:nth-child(13) {
        animation-delay: 1228ms;
        }
        .st:nth-child(14) {
        animation-delay: 1532ms;
        }
        .st:nth-child(15) {
        animation-delay: 1408ms;
        }
        .st:nth-child(16) {
        animation-delay: 21ms;
        }
        .st:nth-child(17) {
        animation-delay: 281ms;
        }
        .st:nth-child(18) {
        animation-delay: 12ms;
        }
        .st:nth-child(19) {
        animation-delay: 1520ms;
        }
        .st:nth-child(20) {
        animation-delay: 576ms;
        }
        .st:nth-child(21) {
        animation-delay: 1784ms;
        }
        .st:nth-child(22) {
        animation-delay: 1733ms;
        }
        .st:nth-child(23) {
        animation-delay: 1820ms;
        }
        .st:nth-child(24) {
        animation-delay: 1456ms;
        }
        .st:nth-child(25) {
        animation-delay: 450ms;
        }
        .st:nth-child(26) {
        animation-delay: 1410ms;
        }
    </style>
    <path class="st" fill-rule="evenodd" clip-rule="evenodd" d="M635.824 5.07177L637.657 0.709229L633.025 1.68428L635.824 5.07177Z" stroke="white" stroke-linecap="round" stroke-linejoin="round"/>
    <path class="st" fill-rule="evenodd" clip-rule="evenodd" d="M190.409 486.984L188.576 482.621L193.208 483.596L190.409 486.984Z" stroke="white" stroke-linecap="round" stroke-linejoin="round"/>
    <path class="st" d="M796.971 247.867C795.938 247.867 795.101 247.03 795.101 245.997C795.101 244.963 795.938 244.126 796.971 244.126C798.004 244.126 798.841 244.963 798.841 245.997C798.841 247.03 798.004 247.867 796.971 247.867Z" fill="white"/>
    <path class="st" d="M33.8702 439.741C32.8374 439.741 32.0002 438.904 32.0002 437.871C32.0002 436.837 32.8374 436 33.8702 436C34.9029 436 35.7402 436.837 35.7402 437.871C35.7402 438.904 34.9029 439.741 33.8702 439.741Z" fill="white"/>
    <path class="st" d="M23.8702 680.741C22.8374 680.741 22.0002 679.904 22.0002 678.871C22.0002 677.837 22.8374 677 23.8702 677C24.9029 677 25.7402 677.837 25.7402 678.871C25.7402 679.904 24.9029 680.741 23.8702 680.741Z" fill="white"/>
    <path class="st" d="M900.305 42.4905C900.174 42.7181 900.158 43.1262 900.485 43.7972C900.802 44.4492 901.391 45.2341 902.23 46.1012C903.902 47.8303 906.487 49.8026 909.589 51.594C912.691 53.3855 915.691 54.6381 918.024 55.2224C919.194 55.5154 920.168 55.633 920.891 55.5819C921.635 55.5293 921.981 55.3116 922.112 55.084C922.243 54.8564 922.259 54.4483 921.933 53.7773C921.615 53.1253 921.026 52.3404 920.188 51.4733C918.515 49.7442 915.931 47.7719 912.829 45.9805C909.727 44.1891 906.727 42.9364 904.394 42.3521C903.224 42.0591 902.25 41.9416 901.527 41.9926C900.782 42.0452 900.437 42.2629 900.305 42.4905Z" stroke="white"/>
    <path class="st" d="M649.524 283.762C648.801 284.315 648.121 284.999 647.519 285.796L647.918 286.097C647.649 286.454 647.395 286.836 647.162 287.24C646.928 287.645 646.725 288.055 646.55 288.467L646.09 288.272C645.7 289.192 645.449 290.123 645.331 291.026L645.827 291.09C645.703 292.042 645.737 292.951 645.918 293.767L645.43 293.875C645.648 294.861 646.067 295.734 646.679 296.418L647.051 296.085C647.334 296.402 647.662 296.671 648.035 296.886C648.407 297.101 648.805 297.251 649.22 297.338L649.118 297.827C650.016 298.015 650.982 297.941 651.944 297.637L651.794 297.16C652.59 296.909 653.395 296.484 654.156 295.901L654.46 296.298C655.183 295.745 655.864 295.061 656.465 294.264L656.066 293.963C656.336 293.605 656.589 293.224 656.822 292.819C657.056 292.415 657.259 292.005 657.434 291.593L657.894 291.788C658.284 290.868 658.535 289.937 658.653 289.034L658.157 288.969C658.281 288.018 658.247 287.109 658.066 286.293L658.555 286.185C658.337 285.199 657.918 284.326 657.306 283.641L656.933 283.975C656.65 283.658 656.322 283.388 655.95 283.173C655.577 282.958 655.18 282.809 654.764 282.722L654.867 282.233C653.968 282.045 653.002 282.118 652.04 282.422L652.191 282.899C651.394 283.151 650.59 283.576 649.828 284.159L649.524 283.762Z" stroke="white"/>
    <path class="st" d="M1052.73 351.11C1053.36 350.484 1053.36 349.468 1052.73 348.842C1052.11 348.215 1051.09 348.215 1050.47 348.842L1045.84 353.471C1045.21 354.097 1045.21 355.113 1045.84 355.74C1046.46 356.366 1047.48 356.366 1048.11 355.74L1052.73 351.11Z" stroke="white"/>
    <path class="st" d="M824.813 481.419C824.297 481.419 823.878 481 823.878 480.483C823.878 479.967 824.297 479.548 824.813 479.548C825.329 479.548 825.748 479.967 825.748 480.483C825.748 481 825.329 481.419 824.813 481.419Z" fill="white"/>
    <path class="st" d="M548.592 463.436C548.076 463.436 547.657 463.017 547.657 462.5C547.657 461.984 548.076 461.565 548.592 461.565C549.108 461.565 549.527 461.984 549.527 462.5C549.527 463.017 549.108 463.436 548.592 463.436Z" fill="white"/>
    <path class="st" d="M677.935 588.871C677.419 588.871 677 588.452 677 587.935C677 587.419 677.419 587 677.935 587C678.451 587 678.87 587.419 678.87 587.935C678.87 588.452 678.451 588.871 677.935 588.871Z" fill="white"/>
    <path class="st" d="M286.81 208.087C286.363 207.829 286.21 207.257 286.468 206.81C286.726 206.362 287.298 206.209 287.745 206.467C288.192 206.726 288.346 207.298 288.087 207.745C287.829 208.192 287.257 208.346 286.81 208.087Z" fill="white"/>
    <path class="st" d="M508.097 50.7079C507.581 50.7079 507.162 50.2892 507.162 49.7727C507.162 49.2561 507.581 48.8374 508.097 48.8374C508.613 48.8374 509.032 49.2561 509.032 49.7727C509.032 50.2892 508.613 50.7079 508.097 50.7079Z" fill="white"/>
    <path class="st" d="M1.07819 234.498C1.07819 235.642 2.00565 236.57 3.14943 236.57C4.29322 236.57 5.22068 235.642 5.22068 234.498C5.22068 233.353 4.29322 232.426 3.14943 232.426C2.00565 232.426 1.07819 233.353 1.07819 234.498Z" stroke="white"/>
    <path class="st" d="M886.484 553.004C885.968 553.004 885.549 552.585 885.549 552.068C885.549 551.552 885.968 551.133 886.484 551.133C887 551.133 887.419 551.552 887.419 552.068C887.419 552.585 887 553.004 886.484 553.004Z" fill="white"/>
    <g class="st">
        <path d="M141.448 48H141.693V53.1439H141.448V48Z" fill="white"/>
        <path d="M139 50.6947V50.4497H144.142V50.6947H139Z" fill="white"/>
        <path d="M139.667 48.8397L139.84 48.6665L143.476 52.3038L143.303 52.477L139.667 48.8397Z" fill="white"/>
        <path d="M143.476 48.8397L143.303 48.6665L139.667 52.3038L139.84 52.477L143.476 48.8397Z" fill="white"/>
    </g>
    <g class="st">
        <path d="M303.776 64.6646H304.021V69.8085H303.776V64.6646Z" fill="white"/>
        <path d="M301.327 67.3592V67.1143H306.469V67.3592H301.327Z" fill="white"/>
        <path d="M301.994 65.5043L302.167 65.3311L305.803 68.9684L305.63 69.1416L301.994 65.5043Z" fill="white"/>
        <path d="M305.803 65.5043L305.63 65.3311L301.994 68.9684L302.167 69.1416L305.803 65.5043Z" fill="white"/>
    </g>
    

    <path class="st" d="M1275.93 340.871C1275.42 340.871 1275 340.452 1275 339.935C1275 339.419 1275.42 339 1275.93 339C1276.45 339 1276.87 339.419 1276.87 339.935C1276.87 340.452 1276.45 340.871 1275.93 340.871Z" fill="white"/>
    <path class="st" d="M1177.87 181.741C1176.84 181.741 1176 180.904 1176 179.871C1176 178.837 1176.84 178 1177.87 178C1178.9 178 1179.74 178.837 1179.74 179.871C1179.74 180.904 1178.9 181.741 1177.87 181.741Z" fill="white"/>
    <path class="st" d="M846.87 685.741C845.837 685.741 845 684.904 845 683.871C845 682.837 845.837 682 846.87 682C847.903 682 848.74 682.837 848.74 683.871C848.74 684.904 847.903 685.741 846.87 685.741Z" fill="white"/>
    <path class="st" d="M400.846 506.872C399.813 506.872 398.976 506.035 398.976 505.002C398.976 503.968 399.813 503.131 400.846 503.131C401.879 503.131 402.716 503.968 402.716 505.002C402.716 506.035 401.879 506.872 400.846 506.872Z" fill="white"/>
    <path class="st" d="M316.849 614.655C317.475 614.029 317.475 613.013 316.849 612.387C316.223 611.76 315.207 611.76 314.581 612.387L309.953 617.016C309.327 617.642 309.327 618.658 309.953 619.285C310.579 619.911 311.595 619.911 312.221 619.285L316.849 614.655Z" stroke="white"/>
    <path class="st" d="M494.819 585.256C494.303 585.256 493.884 584.837 493.884 584.32C493.884 583.804 494.303 583.385 494.819 583.385C495.335 583.385 495.754 583.804 495.754 584.32C495.754 584.837 495.335 585.256 494.819 585.256Z" fill="white"/>
    <path class="st" d="M779.315 509.443C779.315 510.588 780.242 511.515 781.386 511.515C782.53 511.515 783.457 510.588 783.457 509.443C783.457 508.299 782.53 507.371 781.386 507.371C780.242 507.371 779.315 508.299 779.315 509.443Z" stroke="white"/>
    <path class="st" fill-rule="evenodd" clip-rule="evenodd" d="M1240.65 682.63L1242.13 700.246L1241.4 682.583L1245.08 699.874L1242.13 682.442L1247.95 699.135L1242.85 682.21L1250.71 698.042L1243.53 681.89L1253.32 696.611L1244.16 681.487L1255.72 694.866L1244.74 681.008L1257.88 692.833L1245.26 680.46L1259.78 690.545L1245.7 679.852L1261.37 688.038L1246.06 679.194L1262.63 685.351L1246.34 678.495L1263.55 682.527L1246.52 677.767L1264.11 679.61L1246.62 677.022L1264.29 676.646L1246.62 676.27L1264.11 673.683L1246.52 675.525L1263.55 670.766L1246.34 674.797L1262.63 667.941L1246.06 674.098L1261.37 665.255L1245.7 673.44L1259.78 662.747L1245.26 672.832L1257.88 660.459L1244.74 672.284L1255.72 658.426L1244.16 671.805L1253.32 656.681L1243.53 671.403L1250.71 655.25L1242.85 671.083L1247.95 654.157L1242.13 670.851L1245.08 653.419L1241.4 670.71L1242.13 653.047L1240.65 670.663L1239.16 653.047L1239.9 670.71L1236.22 653.419L1239.16 670.851L1233.34 654.157L1238.44 671.083L1230.58 655.25L1237.76 671.403L1227.98 656.681L1237.13 671.805L1225.57 658.426L1236.55 672.284L1223.41 660.459L1236.04 672.832L1221.52 662.747L1235.59 673.44L1219.92 665.255L1235.23 674.098L1218.66 667.941L1234.96 674.797L1217.74 670.766L1234.77 675.525L1217.19 673.683L1234.67 676.27L1217 676.646L1234.67 677.022L1217.19 679.61L1234.77 677.767L1217.74 682.527L1234.96 678.495L1218.66 685.351L1235.23 679.194L1219.92 688.038L1235.59 679.852L1221.52 690.545L1236.04 680.46L1223.41 692.833L1236.55 681.008L1225.57 694.866L1237.13 681.487L1227.98 696.611L1237.76 681.89L1230.58 698.042L1238.44 682.21L1233.34 699.135L1239.16 682.442L1236.22 699.874L1239.9 682.583L1239.16 700.246L1240.65 682.63Z" fill="white"/>
</svg>

<svg xmlns="http://www.w3.org/2000/svg" width="1277" height="701" fill="none" xmlns:v="https://vecta.io/nano"><style><![CDATA[.A{animation:sparkle 3000ms infinite alternate;transform-origin:50%}.A:nth-child(2){animation-delay:1364ms}.A:nth-child(3){animation-delay:1449ms}.A:nth-child(4){animation-delay:1803ms}.A:nth-child(5){animation-delay:929ms}.A:nth-child(6){animation-delay:1274ms}.A:nth-child(7){animation-delay:744ms}.A:nth-child(8){animation-delay:443ms}.A:nth-child(9){animation-delay:31ms}.A:nth-child(10){animation-delay:1161ms}.A:nth-child(11){animation-delay:354ms}.A:nth-child(12){animation-delay:989ms}.A:nth-child(13){animation-delay:1228ms}.A:nth-child(14){animation-delay:1532ms}.A:nth-child(15){animation-delay:1408ms}.A:nth-child(16){animation-delay:21ms}.A:nth-child(17){animation-delay:281ms}.A:nth-child(18){animation-delay:12ms}.A:nth-child(19){animation-delay:1520ms}.A:nth-child(20){animation-delay:576ms}.A:nth-child(21){animation-delay:1784ms}.A:nth-child(22){animation-delay:1733ms}.A:nth-child(23){animation-delay:1820ms}.A:nth-child(24){animation-delay:1456ms}.A:nth-child(25){animation-delay:450ms}.A:nth-child(26){animation-delay:1410ms}@keyframes sparkle{60%{opacity:0.4;transform:scale(1)}80%{opacity:0.8;transform:scale(1.2)}100%{opacity:0.4;transform:scale(1)}}.B{opacity:.4}.C{fill:#fff}.D{stroke:#fff}]]></style><g stroke-linejoin="round" class="D A"><path class="B" d="M635.824 5.072l1.833-4.363-4.632.975 2.799 3.387z"/><path class="B" d="M190.409 486.984l-1.833-4.363 4.632.975-2.799 3.388z"/></g><g class="C A"><path class="B" d="M796.971 247.867a1.87 1.87 0 1 1 0-3.741 1.87 1.87 0 1 1 0 3.741z"/><path class="B" d="M33.87 439.741a1.87 1.87 0 1 1 0-3.741 1.87 1.87 0 1 1 0 3.741z"/><path class="B" d="M23.87 680.741a1.87 1.87 0 1 1 0-3.741 1.87 1.87 0 1 1 0 3.741z"/></g><g class="D A"><path class="B" d="M900.305 42.491c-.131.228-.147.636.18 1.307.317.652.906 1.437 1.745 2.304 1.672 1.729 4.257 3.701 7.359 5.493s6.102 3.044 8.435 3.628c1.17.293 2.144.411 2.867.359.744-.053 1.09-.27 1.221-.498s.147-.636-.179-1.307c-.318-.652-.907-1.437-1.745-2.304-1.673-1.729-4.257-3.701-7.359-5.493s-6.102-3.044-8.435-3.628c-1.17-.293-2.144-.41-2.867-.359-.745.053-1.09.27-1.222.498z"/><path class="B" d="M649.524 283.762c-.723.553-1.403 1.237-2.005 2.034l.399.301c-.269.357-.523.739-.756 1.143s-.437.815-.612 1.227l-.46-.195c-.39.92-.641 1.851-.759 2.754l.496.064c-.124.952-.09 1.861.091 2.677l-.488.108c.218.986.637 1.859 1.249 2.543l.372-.333c.283.317.611.586.984.801a4 4 0 0 0 1.185.452l-.102.489c.898.188 1.864.114 2.826-.19l-.15-.477c.796-.251 1.601-.676 2.362-1.259l.304.397c.723-.553 1.404-1.237 2.005-2.034l-.399-.301a11.05 11.05 0 0 0 .756-1.144c.234-.404.437-.814.612-1.226l.46.195c.39-.92.641-1.851.759-2.754l-.496-.065c.124-.951.09-1.86-.091-2.676l.489-.108c-.218-.986-.637-1.859-1.249-2.544l-.373.334a3.99 3.99 0 0 0-.983-.802c-.373-.215-.77-.364-1.186-.451l.103-.489c-.899-.188-1.865-.115-2.827.189l.151.477c-.797.252-1.601.677-2.363 1.26l-.304-.397z"/><path class="B" d="M1052.73 351.11c.63-.626.63-1.642 0-2.268-.62-.627-1.64-.627-2.26 0l-4.63 4.629a1.6 1.6 0 0 0 0 2.269c.62.626 1.64.626 2.27 0l4.62-4.63z"/></g><g class="C A"><path class="B" d="M824.813 481.419c-.516 0-.935-.419-.935-.936s.419-.935.935-.935.935.419.935.935-.419.936-.935.936z"/><path class="B" d="M548.592 463.436c-.516 0-.935-.419-.935-.936s.419-.935.935-.935.935.419.935.935-.419.936-.935.936z"/><path class="B" d="M677.935 588.871c-.516 0-.935-.419-.935-.936s.419-.935.935-.935.935.419.935.935-.419.936-.935.936z"/><path class="B" d="M286.81 208.087c-.447-.258-.6-.83-.342-1.277s.83-.601 1.277-.343.601.831.342 1.278-.83.601-1.277.342z"/><path class="B" d="M508.097 50.708c-.516 0-.935-.419-.935-.935s.419-.935.935-.935.935.419.935.935-.419.935-.935.935z"/></g><path class="A B D" d="M1.078 234.498c0 1.144.927 2.072 2.071 2.072s2.071-.928 2.071-2.072a2.07 2.07 0 1 0-4.142 0z"/><path class="A B C" d="M886.484 553.004c-.516 0-.935-.419-.935-.936s.419-.935.935-.935.935.419.935.935-.419.936-.935.936z"/><g class="A B C"><path d="M141.448 48h.245v5.144h-.245V48z"/><path d="M139 50.695v-.245h5.142v.245H139z"/><path d="M139.667 48.84l.173-.173 3.636 3.637-.173.173-3.636-3.637z"/><path d="M143.476 48.84l-.173-.173-3.636 3.637.173.173 3.636-3.637z"/></g><g class="A B C"><path d="M303.776 64.665h.245v5.144h-.245v-5.144z"/><path d="M301.327 67.359v-.245h5.142v.245h-5.142z"/><path d="M301.994 65.504l.173-.173 3.636 3.637-.173.173-3.636-3.637z"/><path d="M305.803 65.504l-.173-.173-3.636 3.637.173.173 3.636-3.637z"/></g><g class="C A"><path class="B" d="M1275.93 340.871c-.51 0-.93-.419-.93-.936s.42-.935.93-.935c.52 0 .94.419.94.935s-.42.936-.94.936z"/><path class="B" d="M1177.87 181.741a1.87 1.87 0 0 1 0-3.741 1.87 1.87 0 0 1 0 3.741z"/><path class="B" d="M846.87 685.741a1.87 1.87 0 1 1 0-3.741 1.87 1.87 0 1 1 0 3.741z"/><path class="B" d="M400.846 506.872a1.87 1.87 0 1 1 0-3.741 1.87 1.87 0 1 1 0 3.741z"/></g><path class="A B D" d="M316.849 614.655c.626-.626.626-1.642 0-2.268s-1.642-.627-2.268 0l-4.628 4.629c-.626.626-.626 1.642 0 2.269s1.642.626 2.268 0l4.628-4.63z"/><path class="A B C" d="M494.819 585.256c-.516 0-.935-.419-.935-.936s.419-.935.935-.935.935.419.935.935-.419.936-.935.936z"/><path class="A B D" d="M779.315 509.443a2.07 2.07 0 1 0 4.142 0 2.07 2.07 0 1 0-4.142 0z"/><path class="A B C" fill-rule="evenodd" d="M1240.65 682.63l1.48 17.616-.73-17.663 3.68 17.291-2.95-17.432 5.82 16.693-5.1-16.925 7.86 15.832-7.18-16.152 9.79 14.721-9.16-15.124 11.56 13.379-10.98-13.858 13.14 11.825-12.62-12.373 14.52 10.085-14.08-10.693 15.67 8.186-15.31-8.844 16.57 6.157-16.29-6.856 17.21 4.032-17.03-4.76 17.59 1.843-17.49-2.588 17.67-.376-17.67-.376 17.49-2.587-17.59 1.842 17.03-4.759-17.21 4.031 16.29-6.856-16.57 6.157 15.31-8.843-15.67 8.185 14.08-10.693-14.52 10.085 12.62-12.373-13.14 11.825 10.98-13.858-11.56 13.379 9.16-15.124-9.79 14.722 7.18-16.153-7.86 15.833 5.1-16.926-5.82 16.694 2.95-17.432-3.68 17.291.73-17.663-1.48 17.616-1.49-17.616.74 17.663-3.68-17.291 2.94 17.432-5.82-16.694 5.1 16.926-7.86-15.833 7.18 16.153-9.78-14.722 9.15 15.124-11.56-13.379 10.98 13.858-13.14-11.825 12.63 12.373-14.52-10.085 14.07 10.693-15.67-8.185 15.31 8.843-16.57-6.157 16.3 6.856-17.22-4.031 17.03 4.759-17.58-1.842 17.48 2.587-17.67.376 17.67.376-17.48 2.588 17.58-1.843-17.03 4.76 17.22-4.032-16.3 6.856 16.57-6.157-15.31 8.844 15.67-8.186-14.07 10.693 14.52-10.085-12.63 12.373 13.14-11.825-10.98 13.858 11.56-13.379-9.15 15.124 9.78-14.721-7.18 16.152 7.86-15.832-5.1 16.925 5.82-16.693-2.94 17.432 3.68-17.291-.74 17.663 1.49-17.616z"/></svg>
